svg/emoji_u1f6f9.svg

<svg width="128" height="128" viewBox="0 0 128 128" fill="none" xmlns="http://www.w3.org/2000/svg">
<path d="M111.66 75.0002L83.9199 59.7402" stroke="#82AEC0" style="stroke:#82AEC0;stroke:color(display-p3 0.5098 0.6824 0.7529);stroke-opacity:1;" stroke-width="8" stroke-miterlimit="10"/>
<path d="M56.0701 103.37L29.5601 88.3398" stroke="#82AEC0" style="stroke:#82AEC0;stroke:color(display-p3 0.5098 0.6824 0.7529);stroke-opacity:1;" stroke-width="8" stroke-miterlimit="10"/>
<path d="M43.2999 94.9099C46.2699 90.4199 50.9899 89.1699 54.6099 90.7099C60.1499 93.0599 61.0199 95.0099 61.0199 95.0099C59.5399 97.2499 50.1099 110.8 50.1099 110.8C50.1099 110.8 46.1799 109.06 43.8499 106.96C40.9399 104.33 40.3299 99.3999 43.2999 94.9099Z" fill="#B7F436" style="fill:#B7F436;fill:color(display-p3 0.7184 0.9569 0.2118);fill-opacity:1;"/>
<path d="M42.1403 97.0802C42.1403 97.0802 41.7203 99.7102 43.5303 100.59C46.4703 102.02 48.0803 99.1602 48.0803 99.1602C48.0803 99.1602 50.2703 95.6502 54.1903 94.2402C59.7003 92.2502 61.7203 96.0502 61.7203 96.0502C61.7203 96.0502 60.2603 91.5202 53.7603 90.4202C51.9303 90.1102 47.9303 91.4202 46.7203 92.1202C42.8203 94.3702 42.1403 97.0802 42.1403 97.0802Z" fill="#8AC628" style="fill:#8AC628;fill:color(display-p3 0.5410 0.7765 0.1569);fill-opacity:1;"/>
<path d="M60.4974 106.119C63.4682 101.628 63.2179 96.2291 59.9384 94.0596C56.6589 91.8902 51.592 93.7721 48.6213 98.263C45.6505 102.754 45.9008 108.153 49.1803 110.323C52.4598 112.492 57.5266 110.61 60.4974 106.119Z" fill="#D3FF55" style="fill:#D3FF55;fill:color(display-p3 0.8267 1.0000 0.3333);fill-opacity:1;"/>
<path d="M53.1003 103.95C53.8903 102.93 54.5303 102.23 55.2603 103.25C55.5703 103.74 55.8703 104.47 56.4703 104.59C58.2903 104.97 58.8503 102.51 58.6803 101.25C58.2403 98.27 54.6703 98.58 53.0503 101.18C52.1103 102.6 52.2103 104.44 52.5803 105.3C52.5803 105.31 52.9403 104.19 53.1003 103.95Z" fill="#8AC628" style="fill:#8AC628;fill:color(display-p3 0.5410 0.7765 0.1569);fill-opacity:1;"/>
<path d="M17.3903 82.7698C20.3603 78.2798 25.0803 77.0298 28.7003 78.5698C34.2403 80.9198 35.1103 82.8698 35.1103 82.8698C33.6303 85.1098 24.2003 98.6598 24.2003 98.6598C24.2003 98.6598 20.2703 96.9198 17.9403 94.8198C15.0303 92.1898 14.4203 87.2598 17.3903 82.7698Z" fill="#B7F436" style="fill:#B7F436;fill:color(display-p3 0.7184 0.9569 0.2118);fill-opacity:1;"/>
<path d="M34.5946 93.9762C37.5654 89.4853 37.3151 84.086 34.0356 81.9166C30.7561 79.7471 25.6892 81.6291 22.7184 86.12C19.7476 90.6109 19.9979 96.0101 23.2774 98.1796C26.5569 100.349 31.6238 98.4671 34.5946 93.9762Z" fill="#8AC628" style="fill:#8AC628;fill:color(display-p3 0.5410 0.7765 0.1569);fill-opacity:1;"/>
<path d="M100.42 66.75C103.4 62.27 108.13 61.04 111.75 62.59C117.28 64.96 118.15 66.92 118.15 66.92C116.66 69.16 107.19 82.67 107.19 82.67C107.19 82.67 103.26 80.92 100.94 78.81C98.0299 76.16 97.4399 71.23 100.42 66.75Z" fill="#B7F436" style="fill:#B7F436;fill:color(display-p3 0.7184 0.9569 0.2118);fill-opacity:1;"/>
<path d="M99.2599 68.92C99.2599 68.92 98.8299 71.55 100.64 72.43C103.58 73.87 105.2 71.01 105.2 71.01C105.2 71.01 107.7 67.15 111.67 65.86C116.74 64.21 118.86 67.94 118.86 67.94C118.86 67.94 117.38 64.2 111.29 62.54C107.45 61.49 103.94 63.35 102.97 64.13C99.4299 66.94 99.2599 68.92 99.2599 68.92Z" fill="#8AC628" style="fill:#8AC628;fill:color(display-p3 0.5410 0.7765 0.1569);fill-opacity:1;"/>
<path d="M117.582 78.0023C120.567 73.5211 120.335 68.1208 117.063 65.9404C113.79 63.7599 108.717 65.6251 105.731 70.1063C102.745 74.5875 102.978 79.9878 106.25 82.1683C109.522 84.3487 114.596 82.4836 117.582 78.0023Z" fill="#D3FF55" style="fill:#D3FF55;fill:color(display-p3 0.8267 1.0000 0.3333);fill-opacity:1;"/>
<path d="M110.21 76.0199C110.74 75.4099 111.54 74.3899 112.27 75.4199C112.58 75.9099 112.96 76.3999 113.56 76.4799C115.45 76.7399 115.95 74.4099 115.78 73.1399C115.35 70.1599 111.78 70.4599 110.15 73.0499C109.21 74.4599 109.3 76.2499 109.66 77.1699C109.66 77.1699 109.87 76.4199 110.21 76.0199Z" fill="#8AC628" style="fill:#8AC628;fill:color(display-p3 0.5410 0.7765 0.1569);fill-opacity:1;"/>
<path d="M124.01 39.89C120.49 29.69 114.12 28.41 111.62 27.52C111.62 27.52 116.1 31.34 118.15 35.98C120.79 41.98 120.64 49.5 114.91 53.56L39.4701 88.86C21.8901 93.17 3.28012 75.53 3.28012 75.53C2.67012 79.58 1.22011 87.11 16.2101 92.69C29.6801 97.7 43.0501 96.58 48.7401 93.73L116.95 61.14C123.69 57.29 126.89 48.22 124.01 39.89Z" fill="#DDB98C" style="fill:#DDB98C;fill:color(display-p3 0.8667 0.7255 0.5490);fill-opacity:1;"/>
<path d="M121.49 36.46C117.97 26.26 106.24 25.85 99.57 27.54C94.03 28.95 87.77 34.11 83.16 37.98C80.68 40.06 76.76 41.85 76.76 41.85L20.18 68.92C20.18 68.92 18.54 69.61 15.78 69.68C12.96 69.75 4.86001 69.32 3.54001 74.14C2.36001 78.47 4.19001 84.22 17.33 89.18C30.78 94.26 40.53 93.15 46.23 90.31L114.44 57.72C121.17 53.87 124.37 44.8 121.49 36.46Z" fill="#424242" style="fill:#424242;fill:color(display-p3 0.2588 0.2588 0.2588);fill-opacity:1;"/>
<path d="M40.0379 81.6567C40.1613 80.5591 39.069 79.5353 37.5982 79.37C36.1274 79.2046 34.8351 79.9604 34.7117 81.058C34.5883 82.1556 35.6806 83.1794 37.1514 83.3448C38.6222 83.5101 39.9145 82.7543 40.0379 81.6567Z" fill="#757575" style="fill:#757575;fill:color(display-p3 0.4588 0.4588 0.4588);fill-opacity:1;"/>
<path d="M30.7684 76.1181C30.8918 75.0205 29.7995 73.9967 28.3287 73.8314C26.8579 73.6661 25.5655 74.4218 25.4421 75.5194C25.3188 76.617 26.4111 77.6409 27.8819 77.8062C29.3527 77.9715 30.645 77.2158 30.7684 76.1181Z" fill="#757575" style="fill:#757575;fill:color(display-p3 0.4588 0.4588 0.4588);fill-opacity:1;"/>
<path d="M49.5198 77.2007C49.6432 76.1031 48.5509 75.0792 47.0801 74.9139C45.6093 74.7486 44.317 75.5043 44.1936 76.602C44.0702 77.6996 45.1625 78.7234 46.6333 78.8887C48.1041 79.054 49.3965 78.2983 49.5198 77.2007Z" fill="#757575" style="fill:#757575;fill:color(display-p3 0.4588 0.4588 0.4588);fill-opacity:1;"/>
<path d="M40.2493 71.6719C40.3727 70.5742 39.2804 69.5504 37.8096 69.3851C36.3388 69.2198 35.0465 69.9755 34.9231 71.0731C34.7997 72.1708 35.892 73.1946 37.3628 73.3599C38.8336 73.5252 40.126 72.7695 40.2493 71.6719Z" fill="#757575" style="fill:#757575;fill:color(display-p3 0.4588 0.4588 0.4588);fill-opacity:1;"/>
<path d="M91.4813 56.5547C91.6047 55.4571 90.5124 54.4332 89.0416 54.2679C87.5708 54.1026 86.2784 54.8583 86.155 55.956C86.0317 57.0536 87.124 58.0774 88.5948 58.2427C90.0656 58.408 91.3579 57.6523 91.4813 56.5547Z" fill="#757575" style="fill:#757575;fill:color(display-p3 0.4588 0.4588 0.4588);fill-opacity:1;"/>
<path d="M82.2108 51.0259C82.3341 49.9283 81.2418 48.9044 79.771 48.7391C78.3003 48.5738 77.0079 49.3295 76.8845 50.4272C76.7612 51.5248 77.8535 52.5486 79.3242 52.7139C80.795 52.8792 82.0874 52.1235 82.2108 51.0259Z" fill="#757575" style="fill:#757575;fill:color(display-p3 0.4588 0.4588 0.4588);fill-opacity:1;"/>
<path d="M101.117 52.1841C101.24 51.0865 100.148 50.0626 98.6773 49.8973C97.2065 49.732 95.9142 50.4877 95.7908 51.5854C95.6674 52.683 96.7597 53.7068 98.2305 53.8721C99.7013 54.0374 100.994 53.2817 101.117 52.1841Z" fill="#757575" style="fill:#757575;fill:color(display-p3 0.4588 0.4588 0.4588);fill-opacity:1;"/>
<path d="M91.8465 46.6553C91.9699 45.5576 90.8776 44.5338 89.4068 44.3685C87.936 44.2032 86.6437 44.9589 86.5203 46.0565C86.3969 47.1542 87.4892 48.178 88.96 48.3433C90.4308 48.5086 91.7231 47.7529 91.8465 46.6553Z" fill="#757575" style="fill:#757575;fill:color(display-p3 0.4588 0.4588 0.4588);fill-opacity:1;"/>
</svg>

<?xml version="1.0" encoding="utf-8"?>
<!-- Generator: Adobe Illustrator 25.2.3, SVG Export Plug-In . SVG Version: 6.00 Build 0)  -->
<svg version="1.1" id="Layer_4" xmlns="http://www.w3.org/2000/svg" xmlns:xlink="http://www.w3.org/1999/xlink" x="0px" y="0px"
	 viewBox="0 0 128 128" style="enable-background:new 0 0 128 128;" xml:space="preserve">
<g>
	<line style="fill:none;stroke:#82AEC0;stroke-width:8;stroke-miterlimit:10;" x1="111.66" y1="75" x2="83.92" y2="59.74"/>
	<line style="fill:none;stroke:#82AEC0;stroke-width:8;stroke-miterlimit:10;" x1="56.07" y1="103.37" x2="29.56" y2="88.34"/>
	<path style="fill:#F44336;" d="M43.3,94.91c2.97-4.49,7.69-5.74,11.31-4.2c5.54,2.35,6.41,4.3,6.41,4.3
		c-1.48,2.24-10.91,15.79-10.91,15.79s-3.93-1.74-6.26-3.84C40.94,104.33,40.33,99.4,43.3,94.91z"/>
	<path style="fill:#C62828;" d="M42.14,97.08c0,0-0.42,2.63,1.39,3.51c2.94,1.43,4.55-1.43,4.55-1.43s2.19-3.51,6.11-4.92
		c5.51-1.99,7.53,1.81,7.53,1.81s-1.46-4.53-7.96-5.63c-1.83-0.31-5.83,1-7.04,1.7C42.82,94.37,42.14,97.08,42.14,97.08z"/>
	
		<ellipse transform="matrix(0.5517 -0.834 0.834 0.5517 -60.7682 91.3159)" style="fill:#FF7555;" cx="54.56" cy="102.19" rx="9.75" ry="7.12"/>
	<path style="fill:#C62828;" d="M53.1,103.95c0.79-1.02,1.43-1.72,2.16-0.7c0.31,0.49,0.61,1.22,1.21,1.34
		c1.82,0.38,2.38-2.08,2.21-3.34c-0.44-2.98-4.01-2.67-5.63-0.07c-0.94,1.42-0.84,3.26-0.47,4.12
		C52.58,105.31,52.94,104.19,53.1,103.95z"/>
	<path style="fill:#F44336;" d="M17.39,82.77c2.97-4.49,7.69-5.74,11.31-4.2c5.54,2.35,6.41,4.3,6.41,4.3
		c-1.48,2.24-10.91,15.79-10.91,15.79s-3.93-1.74-6.26-3.84C15.03,92.19,14.42,87.26,17.39,82.77z"/>
	
		<ellipse transform="matrix(0.5517 -0.834 0.834 0.5517 -62.2572 64.27)" style="fill:#C62828;" cx="28.66" cy="90.05" rx="9.75" ry="7.12"/>
	<path style="fill:#F44336;" d="M100.42,66.75c2.98-4.48,7.71-5.71,11.33-4.16c5.53,2.37,6.4,4.33,6.4,4.33
		c-1.49,2.24-10.96,15.75-10.96,15.75s-3.93-1.75-6.25-3.86C98.03,76.16,97.44,71.23,100.42,66.75z"/>
	<path style="fill:#C62828;" d="M99.26,68.92c0,0-0.43,2.63,1.38,3.51c2.94,1.44,4.56-1.42,4.56-1.42s2.5-3.86,6.47-5.15
		c5.07-1.65,7.19,2.08,7.19,2.08s-1.48-3.74-7.57-5.4c-3.84-1.05-7.35,0.81-8.32,1.59C99.43,66.94,99.26,68.92,99.26,68.92z"/>
	
		<ellipse transform="matrix(0.5545 -0.8322 0.8322 0.5545 -11.8921 125.9114)" style="fill:#FF7555;" cx="111.66" cy="74.06" rx="9.75" ry="7.12"/>
	<path style="fill:#C62828;" d="M110.21,76.02c0.53-0.61,1.33-1.63,2.06-0.6c0.31,0.49,0.69,0.98,1.29,1.06
		c1.89,0.26,2.39-2.07,2.22-3.34c-0.43-2.98-4-2.68-5.63-0.09c-0.94,1.41-0.85,3.2-0.49,4.12
		C109.66,77.17,109.87,76.42,110.21,76.02z"/>
	<path style="fill:#DDB98C;" d="M124.01,39.89c-3.52-10.2-9.89-11.48-12.39-12.37c0,0,4.48,3.82,6.53,8.46
		c2.64,6,2.49,13.52-3.24,17.58l-75.44,35.3C21.89,93.17,3.28,75.53,3.28,75.53c-0.61,4.05-2.06,11.58,12.93,17.16
		c13.47,5.01,26.84,3.89,32.53,1.04l68.21-32.59C123.69,57.29,126.89,48.22,124.01,39.89z"/>
	<path style="fill:#424242;" d="M121.49,36.46c-3.52-10.2-15.25-10.61-21.92-8.92c-5.54,1.41-11.8,6.57-16.41,10.44
		c-2.48,2.08-6.4,3.87-6.4,3.87L20.18,68.92c0,0-1.64,0.69-4.4,0.76c-2.82,0.07-10.92-0.36-12.24,4.46
		c-1.18,4.33,0.65,10.08,13.79,15.04c13.45,5.08,23.2,3.97,28.9,1.13l68.21-32.59C121.17,53.87,124.37,44.8,121.49,36.46z"/>
	
		<ellipse transform="matrix(0.1117 -0.9937 0.9937 0.1117 -47.6372 109.4053)" style="fill:#757575;" cx="37.37" cy="81.35" rx="2" ry="2.68"/>
	
		<ellipse transform="matrix(0.1117 -0.9937 0.9937 0.1117 -50.3772 95.2827)" style="fill:#757575;" cx="28.11" cy="75.82" rx="2" ry="2.68"/>
	
		<ellipse transform="matrix(0.1117 -0.9937 0.9937 0.1117 -34.7934 114.8764)" style="fill:#757575;" cx="46.86" cy="76.9" rx="2" ry="2.68"/>
	
		<ellipse transform="matrix(0.1117 -0.9937 0.9937 0.1117 -37.5333 100.7538)" style="fill:#757575;" cx="37.59" cy="71.37" rx="2" ry="2.68"/>
	
		<ellipse transform="matrix(0.1117 -0.9937 0.9937 0.1117 23.0022 138.2225)" style="fill:#757575;" cx="88.81" cy="56.25" rx="2" ry="2.68"/>
	
		<ellipse transform="matrix(0.1117 -0.9937 0.9937 0.1117 20.2623 124.0999)" style="fill:#757575;" cx="79.54" cy="50.72" rx="2" ry="2.68"/>
	
		<ellipse transform="matrix(0.1117 -0.9937 0.9937 0.1117 35.9038 143.9195)" style="fill:#757575;" cx="98.45" cy="51.88" rx="2" ry="2.68"/>
	
		<ellipse transform="matrix(0.1117 -0.9937 0.9937 0.1117 33.1639 129.7969)" style="fill:#757575;" cx="89.18" cy="46.35" rx="2" ry="2.68"/>
</g>
</svg>
